build/category/MobileSolid.svg

<svg xmlns="http://www.w3.org/2000/svg" fill="none" viewBox="0 0 24 24" focusable="false"><path d="M0 0H24V24H0z"/><path fill="#74767B" fill-rule="evenodd" d="M9 3C7.34315 3 6 4.34315 6 6L6 18C6 19.6569 7.34315 21 9 21L15 21C16.6569 21 18 19.6569 18 18L18 6C18 4.34315 16.6569 3 15 3L9 3ZM9.29041 4.29999L14.7096 4.29999L14.7096 4.94298C14.7096 5.30197 14.4186 5.59298 14.0596 5.59298L9.94041 5.59298C9.58142 5.59298 9.29041 5.30197 9.29041 4.94298L9.29041 4.29999ZM12.998 17.4383C12.998 17.9895 12.5512 18.4364 12 18.4364C11.4488 18.4364 11.002 17.9895 11.002 17.4383C11.002 16.8871 11.4488 16.4403 12 16.4403C12.5512 16.4403 12.998 16.8871 12.998 17.4383Z"/></svg>

<svg xmlns="http://www.w3.org/2000/svg" fill="none" viewBox="0 0 24 24" focusable="false"><path fill="#74767B" fill-rule="evenodd" d="M9 3C7.34 3 6 4.34 6 6v12c0 1.65 1.34 3 3 3h6c1.65 0 3-1.35 3-3V6c0-1.66-1.35-3-3-3zm.29 1.29h5.41v.65c0 .36-.29.65-.65.65H9.94c-.36 0-.65-.29-.65-.65zm3.7 13.14a.994.994 0 1 1-1.99 0c0-.55.44-.99 1-.99.55 0 .99.44.99.99"/></svg>
